package/converter/svg/duotone/circle-t.svg

<svg xmlns="http://www.w3.org/2000/svg" viewBox="0 0 512 512"><!-- Font Awesome Pro 6.0.0-alpha2 by @fontawesome - https://fontawesome.com License - https://fontawesome.com/license (Commercial License) --><defs><style>.fa-secondary{opacity:.4}</style></defs><path d="M256 16C123.451 16 16 123.451 16 256S123.451 496 256 496S496 388.549 496 256S388.549 16 256 16ZM360 192H280V360C280 373.25 269.25 384 256 384S232 373.25 232 360V192H152C138.75 192 128 181.25 128 168S138.75 144 152 144H360C373.25 144 384 154.75 384 168S373.25 192 360 192Z" class="fa-secondary"/><path d="M360 144H152C138.75 144 128 154.75 128 168S138.75 192 152 192H232V360C232 373.25 242.75 384 256 384S280 373.25 280 360V192H360C373.25 192 384 181.25 384 168S373.25 144 360 144Z" class="fa-primary"/></svg>

<svg xmlns="http://www.w3.org/2000/svg" viewBox="0 0 512 512"><!--! Font Awesome Pro 6.6.0 by @fontawesome - https://fontawesome.com License - https://fontawesome.com/license (Commercial License) Copyright 2024 Fonticons, Inc. --><defs><style>.fa-secondary{opacity:.4}</style></defs><path class="fa-secondary" d="M0 256a256 256 0 1 0 512 0A256 256 0 1 0 0 256zm128-88c0-13.3 10.7-24 24-24l104 0 104 0c13.3 0 24 10.7 24 24s-10.7 24-24 24l-80 0 0 168c0 13.3-10.7 24-24 24s-24-10.7-24-24l0-168-80 0c-13.3 0-24-10.7-24-24z"/><path class="fa-primary" d="M128 168c0-13.3 10.7-24 24-24l104 0 104 0c13.3 0 24 10.7 24 24s-10.7 24-24 24l-80 0 0 168c0 13.3-10.7 24-24 24s-24-10.7-24-24l0-168-80 0c-13.3 0-24-10.7-24-24z"/></svg>
